src/assets/images/icons/telegram.svg

<svg width="23" height="19" viewBox="0 0 23 19" fill="none" xmlns="http://www.w3.org/2000/svg">
<path d="M22.8861 1.7037C22.5761 4.94007 21.2348 12.7938 20.5522 16.4186C20.2635 17.9523 19.6949 18.4666 19.1445 18.5169C17.9485 18.6263 17.0401 17.7315 15.8815 16.9768C14.0686 15.796 13.0445 15.0609 11.2847 13.9086C9.25104 12.577 10.5694 11.8454 11.7284 10.6488C12.0317 10.3357 17.302 5.5724 17.404 5.14028C17.4167 5.08622 17.4289 4.88444 17.3082 4.77847C17.1874 4.67251 17.01 4.70841 16.8817 4.73721C16.6999 4.77826 13.8038 6.68033 8.19332 10.4434C7.37134 11.0043 6.62677 11.2776 5.9596 11.2633C5.22414 11.2475 3.80944 10.8501 2.7577 10.5104C1.46775 10.0937 0.442502 9.87348 0.531788 9.16588C0.578299 8.79725 1.08909 8.42036 2.06418 8.03523C8.06893 5.43568 12.073 3.72183 14.0764 2.89368C19.7967 0.529473 20.9853 0.118809 21.7601 0.105109C21.9305 0.102303 22.3115 0.14423 22.5582 0.343207C22.7224 0.48495 22.827 0.682748 22.8514 0.897471C22.8932 1.16408 22.9049 1.43451 22.8861 1.7037Z" fill="#262626"/>
</svg>

<svg width="23" height="19" fill="none" xmlns="http://www.w3.org/2000/svg"><path d="M22.886 1.704c-.31 3.236-1.651 11.09-2.334 14.715-.288 1.533-.857 2.048-1.407 2.098-1.197.11-2.105-.785-3.263-1.54-1.813-1.181-2.838-1.916-4.597-3.068-2.034-1.332-.716-2.064.443-3.26.304-.313 5.574-5.077 5.676-5.509.013-.054.025-.256-.096-.362-.12-.105-.298-.07-.426-.04-.182.04-3.078 1.942-8.689 5.705-.822.561-1.566.835-2.233.82-.736-.015-2.15-.413-3.202-.753-1.29-.416-2.315-.637-2.226-1.344.046-.369.557-.746 1.532-1.13 6.005-2.6 10.009-4.314 12.012-5.142C19.796.529 20.986.119 21.76.105c.17-.003.551.04.798.238a.86.86 0 01.293.554c.042.267.054.538.035.807z" fill="#262626"/></svg>
